svg/file/upload_3_fill.svg

<?xml version="1.0" encoding="UTF-8"?>
<svg width="24px" height="24px" viewBox="0 0 24 24" version="1.1" xmlns="http://www.w3.org/2000/svg" xmlns:xlink="http://www.w3.org/1999/xlink">
    <title>upload_3_fill</title>
    <g id="页面-1" stroke="none" stroke-width="1" fill="none" fill-rule="evenodd">
        <g id="File" transform="translate(-48.000000, -240.000000)" fill-rule="nonzero">
            <g id="upload_3_fill" transform="translate(48.000000, 240.000000)">
                 <path d="M24,0 L24,24 L0,24 L0,0 L24,0 Z M12.5934901,23.257841 L12.5819402,23.2595131 L12.5108777,23.2950439 L12.4918791,23.2987469 L12.4918791,23.2987469 L12.4767152,23.2950439 L12.4056548,23.2595131 C12.3958229,23.2563662 12.3870493,23.2590235 12.3821421,23.2649074 L12.3780323,23.275831 L12.360941,23.7031097 L12.3658947,23.7234994 L12.3769048,23.7357139 L12.4804777,23.8096931 L12.4953491,23.8136134 L12.4953491,23.8136134 L12.5071152,23.8096931 L12.6106902,23.7357139 L12.6232938,23.7196733 L12.6232938,23.7196733 L12.6266527,23.7031097 L12.609561,23.275831 C12.6075724,23.2657013 12.6010112,23.2592993 12.5934901,23.257841 L12.5934901,23.257841 Z M12.8583906,23.1452862 L12.8445485,23.1473072 L12.6598443,23.2396597 L12.6498822,23.2499052 L12.6498822,23.2499052 L12.6471943,23.2611114 L12.6650943,23.6906389 L12.6699349,23.7034178 L12.6699349,23.7034178 L12.678386,23.7104931 L12.8793402,23.8032389 C12.8914285,23.8068999 12.9022333,23.8029875 12.9078286,23.7952264 L12.9118235,23.7811639 L12.8776777,23.1665331 C12.8752882,23.1545897 12.8674102,23.1470016 12.8583906,23.1452862 L12.8583906,23.1452862 Z M12.1430473,23.1473072 C12.1332178,23.1423925 12.1221763,23.1452606 12.1156365,23.1525954 L12.1099173,23.1665331 L12.0757714,23.7811639 C12.0751323,23.7926639 12.0828099,23.8018602 12.0926481,23.8045676 L12.108256,23.8032389 L12.3092106,23.7104931 L12.3186497,23.7024347 L12.3186497,23.7024347 L12.3225043,23.6906389 L12.340401,23.2611114 L12.337245,23.2485176 L12.337245,23.2485176 L12.3277531,23.2396597 L12.1430473,23.1473072 Z" id="MingCute" fill-rule="nonzero"></path>
                <path d="M11.1168,9.47345 C11.5722667,9.018702 12.2911573,8.98839418 12.7817472,9.38250214 L12.8832,9.47345 L15.7066,12.2924 C16.0974,12.6826 16.0979,13.3158 15.7077,13.7066 C15.3474231,14.0673385 14.7802633,14.0955136 14.3876863,13.7908108 L14.2934,13.7077 L13.0000009,12.4163 L13.0000009,21 C13.0000009,21.5523 12.5523,22 12.0000009,22 C11.4871501,22 11.0644916,21.613973 11.0067284,21.1166239 L11.0000009,21 L11.0000009,12.4163 L9.70655,13.7077 C9.31572,14.0979 8.68256,14.0974 8.29234,13.7066 C7.93213692,13.3458615 7.90485503,12.7785811 8.21018757,12.3865388 L8.29345,12.2924 L11.1168,9.47345 Z M11.5,2 C14.2845,2 16.6601,3.7509 17.5858,6.2118 C20.13,6.90722 22,9.23523 22,12 C22,15.2383886 19.434417,17.8775714 16.2249377,17.9958615 L16,18 L15,18 L15,16 C15.7686,16 16.5371,15.7065 17.123,15.1197 C18.246776,13.9941 18.2903446,12.1984968 17.2547676,11.0209775 L17.1197,10.8771 L14.2963,8.05813 C13.0744926,6.83825815 11.1236438,6.79306844 9.84784221,7.92258765 L9.70371,8.05813 L6.88035,10.8771 C5.70785,12.0477 5.70636,13.9472 6.87701,15.1197 C7.40967364,15.6531545 8.09322983,15.9442124 8.79053359,15.9927233 L9,16 L9,18 L7,18 C4.23858,18 2,15.7614 2,13 C2,10.9495 3.23434,9.18724 5.00053,8.41581 C5.04561,4.86476 7.93825,2 11.5,2 Z" id="形状" fill="#09244B"></path>
            </g>
        </g>
    </g>
</svg>

<svg xmlns="http://www.w3.org/2000/svg" width="24" height="24"><g fill="none" fill-rule="nonzero"><path d="M24 0v24H0V0h24ZM12.593 23.258l-.011.002-.071.035-.02.004-.014-.004-.071-.035c-.01-.004-.019-.001-.024.005l-.004.01-.017.428.005.02.01.013.104.074.015.004.012-.004.104-.074.012-.016.004-.017-.017-.427c-.002-.01-.009-.017-.017-.018Zm.265-.113-.013.002-.185.093-.01.01-.003.011.018.43.005.012.008.007.201.093c.012.004.023 0 .029-.008l.004-.014-.034-.614c-.003-.012-.01-.02-.02-.022Zm-.715.002a.023.023 0 0 0-.027.006l-.006.014-.034.614c0 .012.007.02.017.024l.015-.002.201-.093.01-.008.004-.011.017-.43-.003-.012-.01-.01-.184-.092Z"/><path fill="#09244B" d="M11.117 9.473a1.25 1.25 0 0 1 1.665-.09l.101.09 2.824 2.82a1 1 0 0 1-1.32 1.498l-.094-.083L13 12.416V21a1 1 0 0 1-1.993.117L11 21v-8.584l-1.293 1.292a1 1 0 0 1-1.497-1.321l.083-.095 2.824-2.819ZM11.5 2c2.784 0 5.16 1.75 6.086 4.212a6 6 0 0 1-1.36 11.784l-.226.004h-1v-2a3 3 0 0 0 2.255-4.979l-.135-.144-2.824-2.819a3.25 3.25 0 0 0-4.448-.135l-.144.135-2.824 2.82a3 3 0 0 0 1.91 5.115L9 16v2H7a5 5 0 0 1-2-9.584A6.5 6.5 0 0 1 11.5 2Z"/></g></svg>
